!!!COM: Balsamino, Simone
!!!CDT:
!!!PTL: Novellette a sei voci
!!!PPP: Venice
!!!PPR: Amadino
!!!PDT: 1594
!!!PUB-format:
!!!RISM: B 785
!!!OTL: Dunque tu l'ameresti a suo dispetto
!!!AGN: Madrigal
!!!SCT: Tam2031096a
!!!SCA: Tam2031096a
!!!original-voices: 6
!!!extant-voices: 6
!!!complete: Y
!!!final: (C)F
**kern	**text	**kern	**text	**kern	**text	**kern	**text	**kern	**text	**kern	**text
*part6	*part6	*part5	*part5	*part4	*part4	*part3	*part3	*part2	*part2	*part1	*part1
*staff6	*staff6	*staff5	*staff5	*staff4	*staff4	*staff3	*staff3	*staff2	*staff2	*staff1	*staff1
*I"Basso	*	*I"Quinto	*	*I"Tenore	*	*I"Alto	*	*I"Sesto	*	*I"Canto	*
*I'B	*	*I'V	*	*I'T	*	*I'A	*	*I'VI	*	*I'C	*
*oclefF4	*	*oclefC4	*	*oclefC4	*	*oclefC3	*	*oclefC1	*	*oclefC1	*
*clefF4	*	*clefGv2	*	*clefGv2	*	*clefG2	*	*clefG2	*	*clefG2	*
*k[b-]	*	*k[b-]	*	*k[b-]	*	*k[b-]	*	*k[b-]	*	*k[b-]	*
*d:	*	*d:	*	*d:	*	*d:	*	*d:	*	*d:	*
*omet(C)	*	*omet(C)	*	*omet(C)	*	*omet(C)	*	*omet(C)	*	*omet(C)	*
*M4/2	*	*M4/2	*	*M4/2	*	*M4/2	*	*M4/2	*	*M4/2	*
=1	=1	=1	=1	=1	=1	=1	=1	=1	=1	=1	=1
!!LO:TX:a:t=[Nona parte]
0r	.	1r	.	0r	.	1r	.	1g	Dun-	0r	.
.	.	1c	Dun-	.	.	1e	Dun-	2.g	-que	.	.
.	.	.	.	.	.	.	.	4cc	tu	.	.
=2	=2	=2	=2	=2	=2	=2	=2	=2	=2	=2	=2
0r	.	2G	-que	0r	.	2d	-que	4b-y	l'a-	0r	.
.	.	.	.	.	.	.	.	4b-y	-me-	.	.
.	.	2c	tu	.	.	2e	tu	2.g	-re-	.	.
.	.	4B-y	l'a-	.	.	4d	l'a-	.	.	.	.
.	.	4B-y	-me-	.	.	4d	-me-	4d	-sti al	.	.
.	.	2A	-re-	.	.	2c	-re-	4e	suo	.	.
.	.	.	.	.	.	.	.	4f	di-	.	.
=3	=3	=3	=3	=3	=3	=3	=3	=3	=3	=3	=3
0r	.	4G	-sti al	0r	.	4BnX	-sti al	4g	-spet-	0r	.
.	.	2A	suo	.	.	2c	suo	8e	-to,	.	.
.	.	.	.	.	.	.	.	8e	al	.	.
.	.	.	.	.	.	.	.	4f	suo	.	.
.	.	4B-y	di-	.	.	4d	di-	4g	di-	.	.
.	.	4c	-spet-	.	.	4e	-spet-	2a	-spet-	.	.
.	.	8A	-to,	.	.	8c	-to,	.	.	.	.
.	.	8A	al	.	.	8c	al	.	.	.	.
.	.	4B-y	suo	.	.	4d	suo	2g	-to,	.	.
.	.	4c	di-	.	.	4e	di-	.	.	.	.
=4	=4	=4	=4	=4	=4	=4	=4	=4	=4	=4	=4
0r	.	2d	-spet-	0r	.	2f	-spet-	2r	.	0r	.
.	.	4c	-to,	.	.	4e	-to,	2g	Quan-	.	.
.	.	4B-y	Quan-	.	.	4d	Quan-	.	.	.	.
.	.	4G	-do	.	.	4d	-do	4b-y	-do	.	.
.	.	4G	po-	.	.	4d	po-	4b-y	po-	.	.
.	.	4G	-tes-	.	.	4d	-tes-	4b-y	-tes-	.	.
.	.	4G	-si	.	.	4d	-si	4b-y	-si	.	.
=5	=5	=5	=5	=5	=5	=5	=5	=5	=5	=5	=5
0r	.	2.d	far	0r	.	2.f	far	2.a	far	0r	.
.	.	4G	di	.	.	4d	di	4b-y	di	.	.
.	.	4c	non	.	.	4e	non	4g	non	.	.
.	.	4B-y	a-	.	.	4d	a-	4g	a-	.	.
.	.	2A	-mar-	.	.	2c#X	-mar-	4g	-mar-	.	.
.	.	.	.	.	.	.	.	4f#X	.	.	.
=6	=6	=6	=6	=6	=6	=6	=6	=6	=6	=6	=6
2r	.	2G	-la.	2r	.	2d	-la.	2g	-la.	2r	.
2C	Al	2r	.	2c	Al	2r	.	2r	.	2g	Al
4F	suo	1r	.	4c	suo	1r	.	1r	.	4a	suo
4E	di-	.	.	4c	di-	.	.	.	.	4g	di-
4F	-spet-	.	.	4c	-spet-	.	.	.	.	4a	-spet-
4G	-to	.	.	4B-y	-to	.	.	.	.	4b-y	-to
=7	=7	=7	=7	=7	=7	=7	=7	=7	=7	=7	=7
2.F	no,	0r	.	2.A	no,	0r	.	0r	.	2.cc	no,
4G	ma	.	.	4d	ma	.	.	.	.	4b-y	ma
4G	l'a-	.	.	4d	l'a-	.	.	.	.	4b-y	l'a-
4G	-me-	.	.	4d	-me-	.	.	.	.	4b-y	-me-
2F	-re-	.	.	2d	-re-	.	.	.	.	2a	-re-
=8	=8	=8	=8	=8	=8	=8	=8	=8	=8	=8	=8
2G	-i.	2r	.	2d	-i.	2r	.	2r	.	2g	-i.
2r	.	2d	Dun-	2r	.	2f#X	Dun-	2a	Dun-	2r	.
1r	.	4d	-que	1r	.	4f#X	-que	4a	-que	1r	.
.	.	4d	fuor	.	.	4f#X	fuor	4a	fuor	.	.
.	.	4G	di	.	.	4g	di	4b-y	di	.	.
.	.	4A	sua	.	.	4fnXi	sua	4a	sua	.	.
=9	=9	=9	=9	=9	=9	=9	=9	=9	=9	=9	=9
1r	.	2c	vo-	1r	.	2e	vo-	2g	vo-	1r	.
.	.	2F	-glia.	.	.	2f	-glia.	2a	-glia.	.	.
1F	Sì,	1r	.	2r	.	1r	.	1r	.	4.cc	Sì
.	.	.	.	.	.	.	.	.	.	8b-y	per
.	.	.	.	4.c	Sì	.	.	.	.	2a	cer-
.	.	.	.	8B-y	per	.	.	.	.	.	.
=10	=10	=10	=10	=10	=10	=10	=10	=10	=10	=10	=10
1FF	Sì,	1F	Sì,	2A	cer-	2r	.	4.cc	Sì	2f	-to,
.	.	.	.	.	.	.	.	8b-y	per	.	.
.	.	.	.	2F	-to,	1f	Sì,	2a	cer-	4.cc	Sì
.	.	.	.	.	.	.	.	.	.	8b-y	per
1F	Sì,	1r	.	4.c	Sì	.	.	2f	-to,	2a	cer-
.	.	.	.	8B-y	per	.	.	.	.	.	.
.	.	.	.	2A	cer-	[2F	Sì,	4.cc	Sì	2f	-to,
.	.	.	.	.	.	.	.	8b-y	per	.	.
=11	=11	=11	=11	=11	=11	=11	=11	=11	=11	=11	=11
1FF	Sì,	4.c	Sì	2F	-to,	2F]	.	2a	cer-	1f	Sì,
.	.	8B-y	per	.	.	.	.	.	.	.	.
.	.	2A	cer-	4.c	Sì	2f	Sì,	2a	-to,	.	.
.	.	.	.	8B-y	per	.	.	.	.	.	.
4.F	Sì	2F	-to,	2A	cer-	4.a	Sì	1r	.	2cc	Sì,
8E	per	.	.	.	.	8g	per	.	.	.	.
2D	cer-	4.F	Sì	2A	-to,	2f	cer-	.	.	4.dd	Sì
.	.	8E	per	.	.	.	.	.	.	8cc	per
=12	=12	=12	=12	=12	=12	=12	=12	=12	=12	=12	=12
2GG	-to,	1D	cer-	2G	Sì	2g	-to,	4.dd	Sì	4bnX	cer-
.	.	.	.	.	.	.	.	.	.	4bnX	-to,
.	.	.	.	.	.	.	.	8cc	per	.	.
4.BB-y	Sì	.	.	2D	per	2.f	Sì	4b-y	cer-	4.dd	Sì
.	.	.	.	.	.	.	.	4b-y	-to,	.	.
8AA	per	.	.	.	.	.	.	.	.	8cc	per
2GG	cer-	1D	-to.	2G	cer-	.	.	4.dd	Sì	2bni	cer-
.	.	.	.	.	.	4e	per	.	.	.	.
.	.	.	.	.	.	.	.	8cc	per	.	.
2GG	-to.	.	.	2G	-to.	4.d	cer-	4bnX	cer-	2g	-to.
.	.	.	.	.	.	.	.	4bni	-to.	.	.
.	.	.	.	.	.	8d	-to.	.	.	.	.
=13	=13	=13	=13	=13	=13	=13	=13	=13	=13	=13	=13
2.C	Dun-	2.E	Dun-	2.G	Dun-	2c	Dun-	1cc	Dun-	1r	.
.	.	.	.	.	.	4c	-que	.	.	.	.
4FF	-que	4F	-que	4A	-que	4c	tu	.	.	.	.
2C	tu	2E	tu	2G	tu	4e	l'a-	2cc	-que,	2r	.
.	.	.	.	.	.	4e	-me-	.	.	.	.
[2BB-y	l'a-	[2F	l'a-	4B-y	l'a-	4d	-re-	2f	Dun-	[2dd	Dun-
.	.	.	.	4B-y	-me-	4d	-sti al	.	.	.	.
=14	=14	=14	=14	=14	=14	=14	=14	=14	=14	=14	=14
4BB-y]	.	4F]	.	4B-y	-re-	4d	suo	4f	-que	4dd]	.
4C	-me-	4c	-me-	4G	-sti al	4e	di-	4e	tu	4cc	-que
2FF	-re-	2c	-re-	4.A	suo	2f	-spet-	4a	l'a-	2cc	tu
.	.	.	.	.	.	.	.	4a	-me-	.	.
.	.	.	.	8B-y	di-	.	.	.	.	.	.
2FF	-sti	2F	-sti al	4c	-spet-	2f	-to,	2a	-re-	4cc	l'a-
.	.	.	.	8A	-to,	.	.	.	.	4cc	-me-
.	.	.	.	8A	al	.	.	.	.	.	.
2r	.	4.G	suo	4.B-y	suo	2d	tu	2g	-sti,	[2b-y	-re-
.	.	8A	di-	8c	di-	.	.	.	.	.	.
=15	=15	=15	=15	=15	=15	=15	=15	=15	=15	=15	=15
2r	.	4B-y	-spet-	4d	-spet-	4G	l'a-	1r	.	2b-y]	.
.	.	8G	-to,	8B-y	-to,	4g	-me-	.	.	.	.
.	.	8G	al	8B-y	al	.	.	.	.	.	.
2FF	al	4.A	suo	4c	suo	2f	-re-	.	.	2a	-sti al
.	.	.	.	4c	di-	.	.	.	.	.	.
.	.	8A	di-	.	.	.	.	.	.	.	.
4GG	suo	2G	-spet-	2B-y	-spet-	1d	-sti,	2r	.	4b-y	suo
4AA	di-	.	.	.	.	.	.	.	.	4cc	di-
4BB-y	-spet-	4F	-to,	2B-y	-to,	.	.	2d	tu	4dd	-spet-
8GG	-to,	4G	tu	.	.	.	.	.	.	[8b-y	-to,
8GG	al	.	.	.	.	.	.	.	.	8b-]	al
=16	=16	=16	=16	=16	=16	=16	=16	=16	=16	=16	=16
4AA	suo	4E	l'a-	0r	.	0r	.	4c	l'a-	4cc	suo
4BB-y	di-	4D	-me-	.	.	.	.	4f	-me-	4dd	di-
4C	-spet-	4G	-re-	.	.	.	.	4c	-re-	4ee-X	-spet-
8AA	-to,	4c	-sti al	.	.	.	.	4c	-sti al	8cc	-to,
8AA	al	.	.	.	.	.	.	.	.	8cc	al
4BB-y	suo	4F	suo	.	.	.	.	4d	suo	4b-y	suo
4C	di-	4E	di-	.	.	.	.	4e	di-	4g	di-
4D	-spet-	2D	-spet-	.	.	.	.	4f	-spet-	2dd	-spet-
[8BB-y	-to,	.	.	.	.	.	.	8d	-to,	.	.
8BB-]	al	.	.	.	.	.	.	8d	al	.	.
=17	=17	=17	=17	=17	=17	=17	=17	=17	=17	=17	=17
4C	suo	2G	-to,	2c	Dun-	1r	.	4e	suo	2cc	-to,
4D	di-	.	.	.	.	.	.	4f	di-	.	.
4E-X	-spet-	2G	tu	4B-y	-que	.	.	4g	-spet-	2r	.
8C	-to,	.	.	4c	tu	.	.	8e	-to,	.	.
8C	al	.	.	.	.	.	.	8e	al	.	.
4D	suo	4d	l'a-	2.A	l'a-	2r	.	4f	suo	1r	.
4E-i	di-	4c	-me-	.	.	.	.	4g	di-	.	.
2F	-spet-	2c	-re-	.	.	2f	Dun-	4a	-spet-	.	.
.	.	.	.	4A	-me-	.	.	8f	-to,	.	.
.	.	.	.	.	.	.	.	8f	al	.	.
=18	=18	=18	=18	=18	=18	=18	=18	=18	=18	=18	=18
2C	-to,	2c	-sti al	2.G	-re-	4e	-que	4g	suo	2r	.
.	.	.	.	.	.	4e	tu	4a	di-	.	.
2r	.	4B-y	suo	.	.	4d	l'a-	4b-y	-spet-	2g	tu
.	.	4c	di-	4E	-sti al	4e	-me-	8g	-to,	.	.
.	.	.	.	.	.	.	.	8g	<al	.	.
1r	.	1A	-spet-	4F	suo	2.c	-re-	4a	suo	2.f	l'a-
.	.	.	.	4G	di-	.	.	4b-y	di-	.	.
.	.	.	.	4A	-spet-	.	.	4cc	-spet-	.	.
.	.	.	.	8F	-to,	4f	-sti al	8a	-to,	4a	-me-
.	.	.	.	8F	al	.	.	8a	al	.	.
=19	=19	=19	=19	=19	=19	=19	=19	=19	=19	=19	=19
1GG	al	2D	-to,	4G	suo	2.d	suo	4b-y	suo	1g	-re-
.	.	.	.	4A	di-	.	.	4cc	di-	.	.
.	.	2D	al	4B-y	-spet-	.	.	2dd	-spet-	.	.
.	.	.	.	8G	-to,	4e	di-	.	.	.	.
.	.	.	.	8G	al	.	.	.	.	.	.
2D	suo	2D	suo	4A	suo	4f	-spet-	2dd	-to,>	2f	-sti al
.	.	.	.	4F	di-	8d	-to,	.	.	.	.
.	.	.	.	.	.	8d	al	.	.	.	.
2C	di-	2G	di-	4c	-spet-	4e	suo	2r	.	4.g	suo
.	.	.	.	8G	-to,	4f	di-	.	.	.	.
.	.	.	.	8A	al	.	.	.	.	8a	di-
=20	=20	=20	=20	=20	=20	=20	=20	=20	=20	=20	=20
1G	-spet-	1G	-spet-	4B-y	suo	1g	-spet-	1r	.	1b-y	-spet-
.	.	.	.	4c	di-	.	.	.	.	.	.
.	.	.	.	2d	-spet-	.	.	.	.	.	.
2D	-to,	1A	-to.	2d	-to,	2f	-to,	2r	.	2a	-to,
2G	Quan-	.	.	2B-y	Quan-	2d	Quan-	2b-y	Quan-	2g	Quan-
=21	=21	=21	=21	=21	=21	=21	=21	=21	=21	=21	=21
4E-X	-do	0r	.	4B-y	-do	4e-X	-do	4b-y	-do	4g	-do
4E-i	po-	.	.	4B-y	po-	4e-i	po-	4b-y	po-	4g	po-
4E-i	-tes-	.	.	4B-y	-tes-	4e-i	-tes-	4b-y	-tes-	4g	-tes-
4E-i	-si	.	.	4G	-si	4e-i	-si	4b-y	-si	4g	-si
2.F	far	.	.	2.A	far	2.c	far	4.a	far	4f	far
.	.	.	.	.	.	.	.	.	.	4f	di
.	.	.	.	.	.	.	.	8a	di	.	.
.	.	.	.	.	.	.	.	4a	non	4f	non
4G	di	.	.	4G	di	4B-y	di	4b-y	a-	4d	a-
=22	=22	=22	=22	=22	=22	=22	=22	=22	=22	=22	=22
4F	non	1r	.	4A	non	2c	non	2a	-mar-	2f	-mar-
4E	a-	.	.	4G	a-	.	.	.	.	.	.
2D	-mar-	.	.	2F	-mar-	2d	a-	2a	-la.	4f	-la.
.	.	.	.	.	.	.	.	.	.	4f	Al
4C	-la.	4r	.	4.E	-la.	2G	-mar-	1r	.	4g	suo
4C	Al	4C	Al	.	.	.	.	.	.	4a	di-
.	.	.	.	8F	Al	.	.	.	.	.	.
4GG	suo	4D	suo	4G	suo	2G	-la.	.	.	4b-y	-spet-
4C	di-	4E	di-	4A	di-	.	.	.	.	4cc	-to
=23	=23	=23	=23	=23	=23	=23	=23	=23	=23	=23	=23
4BB-y	-spet-	4F	-spet-	4B-y	-spet-	0r	.	2r	.	4dd	no,
4E-X	-to	4G	-to	4c	-to	.	.	.	.	4r	.
2D	no,	2A	no,	4d	no,	.	.	2f	Al	2r	.
.	.	.	.	4d	ma	.	.	.	.	.	.
2C	al	2E	Al	4G	l'a-	.	.	4g	suo	2r	.
.	.	.	.	4G	-me-	.	.	4a	di-	.	.
4.D	suo	4F	suo	2d	-re-	.	.	4b-y	-spet-	2d	ma
.	.	4G	di-	.	.	.	.	4cc	-to	.	.
8E-i	di-	.	.	.	.	.	.	.	.	.	.
=24	=24	=24	=24	=24	=24	=24	=24	=24	=24	=24	=24
4F	-spet-	4A	-spet-	2D	-i,	2r	.	2dd	no,	4a	l'a-
4G	-to	4B-y	-to	.	.	.	.	.	.	4g	-me-
2A	no,	2c	no,	2r	.	2F	Al	2dd	ma	2f	-re-
4r	.	2r	.	2r	.	4G	suo	4dd	l'a-	4d	-i,
4FF	al	.	.	.	.	4A	di-	4cc	-me-	4a	ma
4GG	suo	[2d	ma	[2D	ma	4B-y	-spet-	[2b-y	-re-	4g	l'a-
4AA	di-	.	.	.	.	4c	-to	.	.	4f	-me-
=25	=25	=25	=25	=25	=25	=25	=25	=25	=25	=25	=25
4BB-y	-spet-	2d]	.	2D]	.	2d	no,	2b-y]	.	2f	-re-
4C	-to	.	.	.	.	.	.	.	.	.	.
4D	no,	4d	l'a-	2.A	l'a-	2f	ma	2a	-i.	4f	-i,
4D	ma	4d	-me-	.	.	.	.	.	.	4a	ma
4F	l'a-	1c	-re-	.	.	4f	l'a-	1r	.	4a	l'a-
4F	-me-	.	.	4F	-me-	4f	-me-	.	.	4a	-me-
2C	-re-	.	.	2G	-re-	2e	-re-	.	.	2g	-re-
=26	=26	=26	=26	=26	=26	=26	=26	=26	=26	=26	=26
2FF	-i.	2c	-i.	2A	-i.	2f	-i.	2r	.	1f	-i.
2r	.	2d	Dun-	2r	.	2f	Dun-	2a	Dun-	.	.
1r	.	4d	-que	1r	.	4f	-que	4a	-que	1r	.
.	.	4d	fuor	.	.	4f	fuor	4a	fuor	.	.
.	.	4G	di	.	.	4d	di	4b-y	di	.	.
.	.	4A	sua	.	.	4f	sua	4a	sua	.	.
=27	=27	=27	=27	=27	=27	=27	=27	=27	=27	=27	=27
1r	.	2c	vo-	1r	.	2e	vo-	2g	vo-	1r	.
.	.	2F	-glia.	.	.	2f	-glia.	2a	-glia.	.	.
1F	Sì,	1r	.	2r	.	2f	Sì,	1r	.	4.cc	Sì
.	.	.	.	.	.	.	.	.	.	8b-y	per
.	.	.	.	4.c	Sì	[2F	Sì,	.	.	2a	cer-
.	.	.	.	8B-y	per	.	.	.	.	.	.
=28	=28	=28	=28	=28	=28	=28	=28	=28	=28	=28	=28
1FF	Sì,	1F	Sì,	2A	cer-	2F]	.	4.cc	Sì	2f	-to,
.	.	.	.	.	.	.	.	8b-y	per	.	.
.	.	.	.	2F	-to,	1f	Sì,	2a	cer-	4.cc	Sì
.	.	.	.	.	.	.	.	.	.	8b-y	per
1F	Sì,	1r	.	4.c	Sì	.	.	2f	-to,	2a	cer-
.	.	.	.	8B-y	per	.	.	.	.	.	.
.	.	.	.	2A	cer-	[2F	Sì,	4.cc	Sì	2f	-to,
.	.	.	.	.	.	.	.	8b-	per	.	.
=29	=29	=29	=29	=29	=29	=29	=29	=29	=29	=29	=29
1FF	Sì,	4.c	Sì	2F	-to,	2F]	.	2a	cer-	1f	Sì,
.	.	8B-y	per	.	.	.	.	.	.	.	.
.	.	2A	cer-	4.c	Sì	2f	Sì,	2a	-to,	.	.
.	.	.	.	8B-y	per	.	.	.	.	.	.
4.F	Sì	2F	-to,	2A	cer-	4.a	Sì	1r	.	2cc	Sì,
8E	per	.	.	.	.	8g	per	.	.	.	.
2D	cer-	4.F	Sì	2A	-to,	2f	cer-	.	.	4.dd	Sì
.	.	8E	per	.	.	.	.	.	.	8cc	per
=30	=30	=30	=30	=30	=30	=30	=30	=30	=30	=30	=30
2GG	-to,	0D	cer-	2G	Sì	2g	-to,	4.dd	Sì	4b-y	cer-
.	.	.	.	.	.	.	.	.	.	4b-y	-to,
.	.	.	.	.	.	.	.	8cc	per	.	.
4.BB-y	Sì	.	.	2D	per	2.f	Sì	4b-y	cer-	4.dd	Sì
.	.	.	.	.	.	.	.	4b-y	-to,	.	.
8AA	per	.	.	.	.	.	.	.	.	8cc	per
1GG	cer-	.	.	1G	cer-	.	.	4.dd	Sì	4bnX	cer-
.	.	.	.	.	.	4e	per	.	.	4dd	-to,
.	.	.	.	.	.	.	.	8cc	per	.	.
.	.	.	.	.	.	2d	cer-	2bnX	cer-	8g	Sì
.	.	.	.	.	.	.	.	.	.	8g	per
.	.	.	.	.	.	.	.	.	.	4g	cer-
=31	=31	=31	=31	=31	=31	=31	=31	=31	=31	=31	=31
00Cl	-to.	00Cl	-to.	00Gl	-to.	00el	-to.	00ccl	-to.	00gl	-to.
==	==	==	==	==	==	==	==	==	==	==	==
*-	*-	*-	*-	*-	*-	*-	*-	*-	*-	*-	*-
!!!system-decoration: [*]
!!!RDF**kern: i = editorial accidental
!!!RDF**kern: l = terminal long
!!!ENC: Emiliano Ricciardi
!!!END: 2018/11/10
!!!EED: Coluzzi, Seth
!!!EEV: 2019/01/21
!!!YEC: Copyright 2018 Emiliano Ricciardi, All Rights Reserved
!!!ONB: Translated from MusicXML on 2019/01/21
!!@@BEGIN:	VERSEDATA
!!@CATALOGNUM:	Tam2031096
!!@LAST_MODIFIED: 2020/07/12
!!@ACT:         II
!!@SCENE:       3
!!@VERSE:       1096
!!@TITLE:       Dunque tu l'ameresti a suo dispetto
!!@MANUSRC:	A-Am, A-Au, A-Br, A-CM, A-F, A-Ub
!!@PRINTSRC:	A-1580D, A-1580M, A-1581B, A-1581B<sub>bis</sub>, A-1581M, A-1581M<sub>bis</sub>, A-1581O, A-1581V, A-1582B, A-1583M, A-1583V, A-1584A, A-1585C, A-1585V, A-1585V<sub>bis</sub>, A-1588B, A-1589M, A-1589V, A-1590Mb, A-1590Mv, A-1591M, A-1591W, A-1592B, A-1596B, A-1596M, A-1599Bf, A-1599Bp, A-1600R, A-1601Bf, A-1601Bp, A-1602B, A-1603Bf, A-1603Bv, A-1603Z, A-1605R, A-1606Z, A-1608D, A-1608DP, A-1609Bf, A-1609Bv, A-1609Z, A-1611D, A-1614GT, A-1617D, A-1618B, A-1619D, A-1619I, A-1620V, A-1622D, A-1623A, A-1624M, A-1624S, A-1624T, A-1625U, A-1628U, A-1632D, A-1634R
!!@@BEGIN:	VERSES
!!@ABOUTIT:	
!!@ABOUTEN:	
!!@EDITOR:	Solerti, Angelo
!!@EDITION_TITLE: Opere minori in versi di Torquato Tasso. Edizione critica sugli autografi e sulle antiche stampe.
!!@EDITION_LOC:	Bologna
!!@EDITION_PUB:	Zanichelli
!!@EDITION_DATE:  1895
!!@EDITION_VOL:	3
!!@EDITION_PAGE:
!!@TRANSLATOR:	Emiliano Ricciardi and Amyrose McCue Gill
!!@VERSE:	
!!	TIRSI:  Dunque tu l' amaresti a suo dispetto,
!!	Quando potessi far di non amarla.
!!	AMINTA: A suo dispetto no, ma l'amarei.
!!	TIRSI: Dunque fuor di sua voglia.
!!	AMINTA: Sì per certo.
!!@TVERSE:
!!	THYRSIS: Therefore you would love her to spite her,
!!	Should you be able to make [yourself] not love her.
!!	AMINTA: To spite her, no, but I would love her.
!!	THYRSIS: Therefore against her wish.
!!	AMINTA: Yes, for certain.
!!@@END:		VERSES
!!@NEW_CRIT_ED:   Torquato Tasso, <i>Aminta. "Princeps."</i>, ed. Matteo Navone, vol. 9 of Commissione Nazionale per l'Edizione delle opere del Tasso. Studi e Testi (Alessandria: Edizioni dell'Orso, 2014).
!!@ATTRIBUTION_ABOUT:	
!!@DATING:	1573
!!@DEDICATEE:	
!!@COMMENTARY:
!!@@END:		VERSEDATA
!!@@BEGIN: SETTING
!!@CATALOGNUM:	Tam2031096a
!!@ACT:		II
!!@SCENE:		3
!!@VERSE:		1096
!!@TITLE:		Dunque tu l'ameresti a suo dispetto
!!@COMPOSER:	Balsamino, Simone
!!@PRINCEPSTITLE:	Novellette a sei voci
!!@PRINCEPSLOC:	Venice
!!@NORMLOC:	Venice
!!@NORMPUB:	Amadino
!!@NORMPUBSHORT:	Amadino
!!@PRINCEPSPUB:	Amadino
!!@PRINCEPSYEAR:	1594
!!@PRINCEPSRISM:	B 785
!!@OVOICES:	6
!!@EXTANTVOICES:	6
!!@OMENSURATION:	C
!!@OCLEFS:	C1,C1,C3,C4,C4,F4
!!@OTIME:		
!!@OKEYSIG:	b-
!!@FINAL:		(C)F
!!@TIMPEDITOR:	Coluzzi, Seth
!!@PARTS:		1 of 1
!!@REPRINTS:	
!!@@END: SETTING
